!!!!SEGMENT: pl-wn--sd-xvi-qu-273--024_gomolka-mikolaj--i-ziemia-i-cokolwiek-na-niej-sie-najduje.krn
!!!cenid: 15xx:229
!!!COM: Gomółka, Mikołaj
!!!COM-rismid: pe30013343
!!!CDT: ~1535->1591/04/30
!!!CNT: Polish
!!!GTL: Melodiae na psalterz polski
!!!OTL: XXIV. I ziemia, i cokolwiek na niej się najduje,
!!!PDT: 1580
!!!AGN: Sacred
!!!SMS-siglum: PL-Wn
!!!SMS-shelfmark: SD XVI.Qu.273
!!!SMS-shelfwork: 024 G
!!!NIFC-rismid:
!!!ONB-nifc: Melodiae na psalterz polski
**kern	**text	**text	**kern	**text	**text	**kern	**text	**text	**kern	**text	**text
*part4	*part4	*part4	*part3	*part3	*part3	*part2	*part2	*part2	*part1	*part1	*part1
*staff4	*staff4	*staff4	*staff3	*staff3	*staff3	*staff2	*staff2	*staff2	*staff1	*staff1	*staff1
*clefF4	*	*	*clefC3	*	*	*clefC2	*	*	*clefC1	*	*
*M4/2	*	*	*M4/2	*	*	*M4/2	*	*	*M4/2	*	*
*met(C|)	*	*	*met(C|)	*	*	*met(C|)	*	*	*met(C|)	*	*
*>[A,A,B]	*	*	*>[A,A,B]	*	*	*>[A,A,B]	*	*	*>[A,A,B]	*	*
*>A	*	*	*>A	*	*	*>A	*	*	*>A	*	*
=1-	=1-	=1-	=1-	=1-	=1-	=1-	=1-	=1-	=1-	=1-	=1-
1C/	I	I	1G/	I	I	1c/	I	I	1e/	I	I
2F\	Zie-	co	2A/	Zie-	co	4c/	Zie-	co	2f/	Zie-	co
.	.	.	.	.	.	4d/	-miá,	pod	.	.	.
2E\	-miá,	pod	2B/	-m(iá,)	pod	1e\	y	nie-	2g/	-miá,	pod
=2-	=2-	=2-	=2-	=2-	=2-	=2-	=2-	=2-	=2-	=2-	=2-
2A\	y	nie-	2c/	y	nie-	.	.	.	2g/	y	nie-
2A\	co-	(-bem)	2c/	co-	(-bem)	2A/	co-	-bem	2f/	co-	(-bem)
2.G\	-kol-	mie-	1d\	-kol-	mie-	1B/	-kol-	mie-	2g/	-kol-	mie-
.	.	.	.	.	.	.	.	.	1g/	-w(iek)	-sz(ka)
4F\	.	.	.	.	.	.	.	.	.	.	.
=3-	=3-	=3-	=3-	=3-	=3-	=3-	=3-	=3-	=3-	=3-	=3-
2E\	-wiek	-szka,	2e\	-w(iek)	-sz(ka)	2c/	-w(iek)	(-szka)	.	.	.
2F\	ná	y	2c/	ná	y	2A/	ná	y	2.a\	ná	y
1D\	niéy	co	2.d\	niéy	co	1f\	ni(éy)	co	.	.	.
.	.	.	.	.	.	.	.	.	4g/	.	.
.	.	.	.	.	.	.	.	.	4f/	niéy	co
.	.	.	4c/	.	.	.	.	.	4e/	.	.
=4-	=4-	=4-	=4-	=4-	=4-	=4-	=4-	=4-	=4-	=4-	=4-
2G\	sye	sye	2B/	sye	sye	2g\	sy(e)	sye	2d/	sye	sye
2C/	náy-	bu-	4c/	náy-	bu-	2e/	.	.	2e/	náy-	bu-
.	.	.	4B/	.	.	.	.	.	.	.	.
1D\	-du-	-du-	4A/	.	.	2.d/	náy-	bu-	4f/	-du-	-du-
.	.	.	4G/	-du-	-du-	.	.	.	2g/	.	.
.	.	.	2A/	.	.	.	.	.	.	.	.
.	.	.	.	.	.	4c/	du-	-du-	4f/	-ie,	-ie,
=5-	=5-	=5-	=5-	=5-	=5-	=5-	=5-	=5-	=5-	=5-	=5-
1GG/	-ie,	-ie,	1G/	-ie,	-ie,	1B/	-ie,	-ie,	1g\	.	.
*>B	*	*	*>B	*	*	*>B	*	*	*>B	*	*
=:|!-	=:|!-	=:|!-	=:|!-	=:|!-	=:|!-	=:|!-	=:|!-	=:|!-	=:|!-	=:|!-	=:|!-
1GG/	Wszyt-	.	1d\	Wszyt-	.	1g\	Wszyt-	.	1b\	Wszyt-	.
=6-	=6-	=6-	=6-	=6-	=6-	=6-	=6-	=6-	=6-	=6-	=6-
1C/	(-ko)	.	1e\	-ko	.	2g\	(-ko)	.	1cc\	(-ko)	.
.	.	.	.	.	.	2c/	.	.	.	.	.
2.FF/	pá-	.	2.f\	pá-	.	2.c/	pá-	.	2.a\	pá-	.
4FF/	-nu	.	4f\	-nu	.	4c/	-nu	.	4a\	-nu	.
=7-	=7-	=7-	=7-	=7-	=7-	=7-	=7-	=7-	=7-	=7-	=7-
2C/	na-	.	2e\	na-	.	4c/	na-	.	4g/	na-	.
.	.	.	.	.	.	4d/	.	.	4f/	.	.
2C/	-le-	.	2e\	-le-	.	4e\	-le-	.	4g/	-le-	.
.	.	.	.	.	.	4f\	.	.	4a\	.	.
!!LO:PB:g=original
2GG/	-ży:	.	2d\	-ży;	.	2g\	-ży:	.	2b\	-ży;	.
2G\	on	.	2B/	on	.	2d/	on	.	2g\	On	.
=8-	=8-	=8-	=8-	=8-	=8-	=8-	=8-	=8-	=8-	=8-	=8-
2E\	rę-	.	4e\	rę-	.	2g\	rę-	.	2g\	rę-	.
.	.	.	4d\	.	.	.	.	.	.	.	.
4A\	-ká-	.	4c\	-ká-	.	2.a\	-ká-	.	2e/	-ká-	.
4G\	-mi	.	4B/	.	.	.	.	.	.	.	.
4F\	ſwé-	.	1A/	-mi	.	.	.	.	2.f/	-mi	.
4E\	.	.	.	.	.	4g\	-mi	.	.	.	.
2D/	-mi	.	.	.	.	2f\	ſwé-	.	.	.	.
.	.	.	.	.	.	.	.	.	4e/	ſwé-	.
=9-	=9-	=9-	=9-	=9-	=9-	=9-	=9-	=9-	=9-	=9-	=9-
1G\	Grunt	.	4B/	.	.	1g\	-mi	.	4d/	-mi	.
.	.	.	2c/	ſwé-	.	.	.	.	2e/	Grunt	.
.	.	.	4B/	.	.	.	.	.	4d/	.	.
2C/	.	.	1c\	-mi	.	2g\	Grunt	.	2e/	ná	.
2C/	ná	.	.	.	.	2g\	.	.	2e/	mo-	.
=10-	=10--	=10	=10-	=10-	=10-	=10-	=10-	=10-	=10-	=10-	=10-
2F\	.	.	2r	.	.	2a\	ná	.	2f/	-rzu	.
2E\	mo-	.	2G/	Gr(unt)	.	2g\	mo-	.	2g/	zá-	.
2F\	-rzu	.	2c/	.	.	2f\	-rzu	.	2a\	-ło-	.
2G\	.	.	2B/	ná	.	2f\	zá-	.	2g/	-żył	.
=11-	=11	=11--	=11-	=11-	=11-	=11-	=11-	=11-	=11-	=11-	=11-
2A\	zá-	.	2c/	mo-	.	2.e/	-ło-	.	2cc\	nie-	.
4G\	.	.	2d\	(-rzu)	.	.	.	.	4b\	.	.
4F\	-ło-	.	.	.	.	4f\	-żył	.	4a\	wzru-	.
4E\	.	.	1e\	zá-	.	2g\	.	.	4g\	.	.
4D\	-żył	.	.	.	.	.	.	.	4f/	.	.
2C/	nie	.	.	.	.	2c/	nie-	.	4e/	.	.
.	.	.	.	.	.	.	.	.	4f/	-szo-	.
=12	=12--	=12	=12-	=12--	=12-	=12-	=12-	=12-	=12-	=12-	=12-
2G\	.	.	2d\	-ło-	.	2B/	.	.	1g\	.	.
2GG/	-wzru-	.	2B/	-żył	.	2d/	-wzru-	.	.	.	.
2C/	-szo-	.	2.c/	nie-	.	2e/	-szo-	.	2.g/	-néy	.
2C/	(-néy)	.	.	.	.	2e/	-néy	.	.	.	.
.	.	.	4B/	-wzru-	.	.	.	.	4e/	.	.
=13-	=13-	=13-	=13-	=13--	=13	=13-	=13-	=13-	=13-	=13--	=13
1D\	źie-	.	4A/	-szo-	.	2.d/	źie-	.	4f/	źie-	.
.	.	.	4G/	-néy	.	.	.	.	2g/	.	.
.	.	.	2A/	źie-	.	.	.	.	.	.	.
.	.	.	.	.	.	4c/	-mi.	.	4f/	.	.
!LO:N:vis=00	!	!	!	!	!	!	!	!	!	!	!
000GG;/	-mi.	.	000G/	-mi.	.	000B/	.	.	000g\	-mi.	.
==-	==-	==-	==-	==-	==-	==-	==-	==-	==-	==-	==-
*-	*-	*-	*-	*-	*-	*-	*-	*-	*-	*-	*-
!!!RDF**kern: l = terminal long
!!!system-decoration: s1,s2,s3,s4
!!!ENC: Leszek Kubiak
!!!END: data 2020-02-05
!!!URL-scan: https://polona.pl/item/melodiae-na-psalterz-polski,Nzk3MTM4ODQ/69 Scan on Polona
!!!IIIF: https://polona.pl/iiif/item/Nzk3MTM4ODQ/manifest.json
